Wisc-HCI/UR3e_simulation/src/example-joint-state-data/example.csv
time,shoulder_pan_joint,shoulder_lift_joint,elbow_joint,wrist_1_joint,wrist_2_joint,wrist_3_joint
0,0,-1.57,1.57,0,0,0
0.01,0.1,-1.55,1.55,0.1,0,0.1
0.02,0.2,-1.52,1.52,0.2,0,0.2
0.03,0.3,-1.5,1.5,0.3,0.1,0.3
0.04,0.4,-1.48,1.48,0.4,0.1,0.4
0.05,0.5,-1.45,1.45,0.5,0.2,0.5
0.06,0.6,-1.43,1.43,0.6,0.2,0.6
0.07,0.7,-1.4,1.4,0.7,0.3,0.7
0.08,0.8,-1.38,1.38,0.8,0.3,0.8
0.09,0.9,-1.35,1.35,0.9,0.4,0.9
